src/img/train-day.svg

<svg xmlns="http://www.w3.org/2000/svg" width="24" height="24" viewBox="0 0 24 24">
  <path fill="none" stroke="#000" d="M2,20.4997 L22,20.4997 M2,18.4997 L13,18.4997 L19,18.4997 C19.828,18.4997 20.5,17.8287 20.5,16.9997 C20.5,16.7617 20.439,16.5387 20.34,16.3387 L18.236,10.5377 C17.627,8.7737 15.97,7.4997 14,7.4997 L2,7.4997 M7.5,14.5 L11.5,14.5 L11.5,10.5 L7.5,10.5 L7.5,14.5 Z M2,10.5002 L5.5,10.5002 L5.5,14.5002 L2,14.5002 M10,7.5002 L13,5.5002 L10,3.5002 L7,5.5002 L10,7.5002 M16.5,18.4997 C16.5,19.6037 15.604,20.4997 14.5,20.4997 C13.396,20.4997 12.5,19.6037 12.5,18.4997 M7.5,18.4997 C7.5,19.6037 6.604,20.4997 5.5,20.4997 C4.396,20.4997 3.5,19.6037 3.5,18.4997 M18.2363,10.5373 C18.2313,10.5243 18.2243,10.5133 18.2193,10.5003 L13.5003,10.5003 L13.5003,14.4993 L19.6733,14.4993"/>
</svg>

<svg xmlns="http://www.w3.org/2000/svg" width="24" height="24"><path fill="none" stroke="#000" d="M2 20.5h20m-20-2h17a1.5 1.5 0 0 0 1.5-1.5c0-.238-.061-.461-.16-.661l-2.104-5.801C17.627 8.774 15.97 7.5 14 7.5H2m5.5 7h4v-4h-4v4Zm-5.5-4h3.5v4H2m8-7 3-2-3-2-3 2 3 2m6.5 11a2 2 0 0 1-4 0m-5 0a2 2 0 0 1-4 0m14.736-7.963-.017-.037H13.5v4h6.173"/></svg>
